X:3172
T:Limu, limu lima
C:anon.
O:Sweden
Z:Transcribed by Frank Nordberg - http://www.musicaviva.com
F:http://abc.musicaviva.com/tunes/sweden/limu-limu-lima.abc.abc
M:2/4
L:1/8
K:Am
"Am"Ae ed|"E"e2 B2|"Am"cA cc|"E"B2 "Am"A2|"Am"z2 cd|"Am"e2 cB|
"Am"A2 cd|"Am"e2 cB|"F"A2 cd|"Am"e2 cB|"F"A2 c2|"E7"^G2 B2|"Am"A4|]
W:
W:
W:  From Musica Viva - http://www.musicaviva.com
W:  the Internet center for free sheet music downloads.
